static/icons/opensource.svg

<svg fill="none" height="700" viewBox="0 0 700 700" width="700" xmlns="http://www.w3.org/2000/svg"><rect fill="#dcf2ff" height="700" rx="120" width="700"/><path clip-rule="evenodd" d="m224.01 256.51c0 .168 0 .336.001.504h-.001v13.554c0 10.494 8.506 19 19 19h27.108c10.493 0 19-8.506 19-19v-13.554h.002c-.002-.174-.002-.35-.002-.525 0-33.348 27.034-60.382 60.382-60.382s60.382 27.034 60.382 60.382c0 .175 0 .351-.002.525h.002v109.531c.351-.193.702-.388 1.051-.584v69.575h64.057v-178.522c0-.168.001-.336.001-.504 0-69.306-56.184-125.49-125.491-125.49-69.306 0-125.49 56.184-125.49 125.49z" fill="#33a1fd" fill-rule="evenodd"/><rect fill="#ffc93d" height="229" rx="37" width="301" x="199" y="321"/><g fill="#e15285"><ellipse cx="350" cy="417.5" rx="43" ry="43.5"/><rect height="79" rx="18" width="36" x="332" y="417"/></g></svg>

<svg width="700" height="700" viewBox="0 0 700 700" fill="none" xmlns="http://www.w3.org/2000/svg">
<rect width="700" height="700" rx="120" fill="#DCF2FF"/>
<path fill-rule="evenodd" clip-rule="evenodd" d="M224.01 256.51C224.01 256.678 224.01 256.846 224.011 257.014H224.01V270.568C224.01 281.062 232.516 289.568 243.01 289.568H270.118C280.611 289.568 289.118 281.062 289.118 270.568V257.014H289.12C289.118 256.84 289.118 256.664 289.118 256.489C289.118 223.141 316.152 196.107 349.5 196.107C382.848 196.107 409.882 223.141 409.882 256.489C409.882 256.664 409.882 256.84 409.88 257.014H409.882V366.545C410.233 366.352 410.584 366.157 410.933 365.961V435.536H474.99V257.014H474.99C474.99 256.846 474.991 256.678 474.991 256.51C474.991 187.204 418.807 131.02 349.5 131.02C280.194 131.02 224.01 187.204 224.01 256.51Z" fill="#33A1FD"/>
<rect x="199" y="321" width="301" height="229" rx="37" fill="#FFC93D"/>
<ellipse cx="350" cy="417.5" rx="43" ry="43.5" fill="#E15285"/>
<rect x="332" y="417" width="36" height="79" rx="18" fill="#E15285"/>
</svg>
